assets/icons/viber.svg

<?xml version="1.0" encoding="UTF-8"?>
<svg viewBox="0 0 48 48" xmlns="http://www.w3.org/2000/svg">
<rect width="48" height="48" rx="24" fill="#675DA9"/>
<path d="m35.754 12.184c-0.7939-0.7298-4.0079-3.0667-11.172-3.0987 0 0-8.4447-0.51219-12.561 3.2652-2.2921 2.292-3.0988 5.6405-3.182 9.802-0.08323 4.1551-0.19207 11.947 7.3179 14.06h0.0064l-0.0064 3.2204s-0.0448 1.3061 0.8131 1.5686c1.0372 0.3201 1.6518-0.6723 2.6442-1.7415 0.5442-0.589 1.2932-1.4469 1.863-2.1063 5.1347 0.4289 9.085-0.557 9.5331-0.7043 1.0372-0.3393 6.9082-1.0884 7.8621-8.88 0.986-8.0158-0.4802-13.093-3.1179-15.385zm0.8707 14.822c-0.8067 6.5047-5.5637 6.9145-6.4408 7.1962-0.3713 0.1216-3.8414 0.986-8.2078 0.6978 0 0-3.2524 3.9247-4.2639 4.9427-0.1601 0.16-0.3458 0.224-0.4674 0.192-0.1729-0.0448-0.2241-0.2497-0.2177-0.5506 0-0.4353 0.0256-5.3587 0.0256-5.3587-0.0064 0-0.0064 0 0 0-6.3575-1.7607-5.9862-8.3935-5.9157-11.864 0.0704-3.47 0.7234-6.3191 2.6633-8.2334 3.4765-3.1499 10.654-2.6826 10.654-2.6826 6.0566 0.0256 8.9569 1.8503 9.6292 2.4585 2.2344 1.9207 3.374 6.4984 2.5417 13.202z" fill="#fff"/>
<path d="m27.533 22.384c-0.2113 0-0.3906-0.1665-0.4034-0.3842-0.0704-1.3765-0.717-2.0487-2.0359-2.1191-0.2241-0.0128-0.397-0.2049-0.3842-0.429s0.2049-0.3969 0.429-0.3841c1.7414 0.096 2.7146 1.0948 2.8042 2.8874 0.0128 0.2241-0.16 0.4162-0.3841 0.4226-0.0128 0.0064-0.0192 0.0064-0.0256 0.0064z" fill="#fff"/>
<path d="m29.607 23.075h-0.0064c-0.2241-0.0064-0.4033-0.192-0.3969-0.4161 0.032-1.3829-0.365-2.5033-1.2101-3.4253-0.8387-0.9219-1.9975-1.4213-3.5277-1.5301-0.2241-0.0192-0.3905-0.2113-0.3713-0.4354s0.2113-0.3905 0.4354-0.3713c1.7286 0.128 3.0923 0.7298 4.0654 1.7926 0.9796 1.0692 1.4534 2.4073 1.4214 3.9887-0.0064 0.2241-0.1921 0.3969-0.4098 0.3969z" fill="#fff"/>
<path d="m31.733 23.907c-0.2241 0-0.4034-0.1793-0.4034-0.4034-0.0192-2.4777-0.7299-4.3664-2.1768-5.7813-1.4277-1.3957-3.2396-2.1064-5.3715-2.1256-0.2241 0-0.4034-0.1856-0.4034-0.4097s0.1857-0.4034 0.4034-0.4034c2.3496 0.0192 4.3471 0.8067 5.9285 2.3561 1.5878 1.5494 2.4009 3.6877 2.4265 6.3511 0.0064 0.2305-0.1729 0.4162-0.4033 0.4162 0.0064 0 0.0064 0 0 0zm-6.5432 3.4891s0.5698 0.0513 0.8771-0.3265l0.5954-0.749c0.2881-0.3714 0.986-0.6083 1.6646-0.2305 0.3778 0.2112 1.0628 0.6338 1.4854 0.9475 0.4545 0.3329 1.3765 1.1012 1.3829 1.1076 0.4417 0.3714 0.5442 0.9156 0.2433 1.4982v0.0128c-0.3074 0.5442-0.7235 1.0564-1.2421 1.5301-0.0064 0-0.0064 0.0064-0.0128 0.0064-0.429 0.3586-0.8515 0.5634-1.2613 0.6083-0.0512 0.0128-0.1088 0.0128-0.1856 0.0128-0.1793 0-0.3586-0.0256-0.5378-0.0833l-0.0128-0.0192c-0.6403-0.1792-1.7031-0.6274-3.4701-1.607-1.1524-0.6338-2.1064-1.2804-2.9195-1.9271-0.4289-0.3393-0.8643-0.717-1.3124-1.1652-0.0129-0.0128-0.0321-0.032-0.0449-0.0448l-0.0896-0.0896c-0.0128-0.0128-0.032-0.0321-0.0448-0.0449-0.4418-0.4481-0.8259-0.8835-1.1652-1.3124-0.6467-0.8067-1.2933-1.7671-1.9271-2.9195-0.9796-1.7735-1.4278-2.8362-1.607-3.4701l-0.0192-0.0128c-0.0577-0.1792-0.0833-0.3585-0.0833-0.5378 0-0.0768 0-0.1344 0.0128-0.1856 0.0513-0.4162 0.2561-0.8324 0.6083-1.2613 0-0.0064 0.0064-0.0064 0.0064-0.0128 0.4737-0.525 0.9859-0.9348 1.5301-1.2421h0.0128c0.5762-0.3009 1.1204-0.1984 1.4982 0.2433 0 0 0.7747 0.9284 1.1076 1.3829 0.3137 0.429 0.7362 1.1076 0.9475 1.4854 0.3778 0.6786 0.1409 1.3765-0.2305 1.6646l-0.749 0.5954c-0.3778 0.3073-0.3266 0.8771-0.3266 0.8771s1.1077 4.2128 5.2692 5.2691z" fill="#fff"/>
</svg>

<svg xmlns="http://www.w3.org/2000/svg" width="48" height="48" fill="none" viewBox="0 0 48 48" id="viber"><rect width="48" height="48" fill="#675DA9" rx="24"></rect><path fill="#fff" d="M35.7536 12.1845C34.9597 11.4547 31.7457 9.11782 24.5815 9.08581C24.5815 9.08581 16.1368 8.57362 12.0201 12.351C9.72804 14.643 8.92135 17.9915 8.83812 22.153C8.75489 26.3081 8.64605 34.0998 16.156 36.2125H16.1624L16.156 39.4329C16.156 39.4329 16.1112 40.739 16.9691 41.0015C18.0063 41.3216 18.6209 40.3292 19.6133 39.26C20.1575 38.671 20.9065 37.8131 21.4763 37.1537C26.611 37.5826 30.5613 36.5967 31.0094 36.4494C32.0466 36.1101 37.9176 35.361 38.8715 27.5694C39.8575 19.5536 38.3913 14.4766 35.7536 12.1845ZM36.6243 27.006C35.8176 33.5107 31.0606 33.9205 30.1835 34.2022C29.8122 34.3238 26.3421 35.1882 21.9757 34.9C21.9757 34.9 18.7233 38.8247 17.7118 39.8427C17.5517 40.0027 17.366 40.0667 17.2444 40.0347C17.0715 39.9899 17.0203 39.785 17.0267 39.4841C17.0267 39.0488 17.0523 34.1254 17.0523 34.1254C17.0459 34.1254 17.0459 34.1254 17.0523 34.1254C10.6948 32.3647 11.0661 25.7319 11.1366 22.2618C11.207 18.7918 11.86 15.9427 13.7999 14.0284C17.2764 10.8785 24.4534 11.3458 24.4534 11.3458C30.51 11.3714 33.4103 13.1961 34.0826 13.8043C36.317 15.725 37.4566 20.3027 36.6243 27.006Z"></path><path fill="#fff" d="M27.533 22.3835C27.3217 22.3835 27.1424 22.217 27.1296 21.9993C27.0592 20.6228 26.4126 19.9506 25.0937 19.8802C24.8696 19.8674 24.6967 19.6753 24.7095 19.4512C24.7223 19.2271 24.9144 19.0543 25.1385 19.0671C26.8799 19.1631 27.8531 20.1619 27.9427 21.9545C27.9555 22.1786 27.7827 22.3707 27.5586 22.3771C27.5458 22.3835 27.5394 22.3835 27.533 22.3835Z"></path><path fill="#fff" d="M29.6073 23.075H29.6009C29.3768 23.0686 29.1976 22.883 29.204 22.6589C29.236 21.276 28.839 20.1556 27.9939 19.2336C27.1552 18.3117 25.9964 17.8123 24.4662 17.7035C24.2421 17.6843 24.0757 17.4922 24.0949 17.2681C24.1141 17.044 24.3062 16.8776 24.5303 16.8968C26.2589 17.0248 27.6226 17.6266 28.5957 18.6894C29.5753 19.7586 30.0491 21.0967 30.0171 22.6781C30.0107 22.9022 29.825 23.075 29.6073 23.075Z"></path><path fill="#fff" d="M31.7329 23.9073C31.5088 23.9073 31.3295 23.728 31.3295 23.5039 31.3103 21.0262 30.5996 19.1375 29.1527 17.7226 27.725 16.3269 25.9131 15.6162 23.7812 15.597 23.5571 15.597 23.3778 15.4114 23.3778 15.1873 23.3778 14.9632 23.5635 14.7839 23.7812 14.7839 26.1308 14.8031 28.1283 15.5906 29.7097 17.14 31.2975 18.6894 32.1106 20.8277 32.1362 23.4911 32.1426 23.7216 31.9633 23.9073 31.7329 23.9073 31.7393 23.9073 31.7393 23.9073 31.7329 23.9073zM25.1897 27.3964C25.1897 27.3964 25.7595 27.4477 26.0668 27.0699L26.6622 26.3209C26.9503 25.9495 27.6482 25.7126 28.3268 26.0904 28.7046 26.3016 29.3896 26.7242 29.8122 27.0379 30.2667 27.3708 31.1887 28.1391 31.1951 28.1455 31.6368 28.5169 31.7393 29.0611 31.4384 29.6437 31.4384 29.6437 31.4384 29.6501 31.4384 29.6565 31.131 30.2007 30.7149 30.7129 30.1963 31.1866 30.1899 31.1866 30.1899 31.193 30.1835 31.193 29.7545 31.5516 29.332 31.7564 28.9222 31.8013 28.871 31.8141 28.8134 31.8141 28.7366 31.8141 28.5573 31.8141 28.378 31.7885 28.1988 31.7308L28.186 31.7116C27.5457 31.5324 26.4829 31.0842 24.7159 30.1046 23.5635 29.4708 22.6095 28.8242 21.7964 28.1775 21.3675 27.8382 20.9321 27.4605 20.484 27.0123 20.4711 26.9995 20.4519 26.9803 20.4391 26.9675 20.4263 26.9547 20.4071 26.9355 20.3943 26.9227 20.3815 26.9099 20.3623 26.8907 20.3495 26.8779 20.3367 26.8651 20.3175 26.8458 20.3047 26.833 19.8629 26.3849 19.4788 25.9495 19.1395 25.5206 18.4928 24.7139 17.8462 23.7535 17.2124 22.6011 16.2328 20.8276 15.7846 19.7649 15.6054 19.131L15.5862 19.1182C15.5285 18.939 15.5029 18.7597 15.5029 18.5804 15.5029 18.5036 15.5029 18.446 15.5157 18.3948 15.567 17.9786 15.7718 17.5624 16.124 17.1335 16.124 17.1271 16.1304 17.1271 16.1304 17.1207 16.6041 16.5957 17.1163 16.1859 17.6605 15.8786 17.6605 15.8786 17.6669 15.8786 17.6733 15.8786 18.2495 15.5777 18.7937 15.6802 19.1715 16.1219 19.1715 16.1219 19.9462 17.0503 20.2791 17.5048 20.5928 17.9338 21.0153 18.6124 21.2266 18.9902 21.6044 19.6688 21.3675 20.3667 20.9961 20.6548L20.2471 21.2502C19.8693 21.5575 19.9205 22.1273 19.9205 22.1273 19.9205 22.1273 21.0282 26.3401 25.1897 27.3964z"></path></svg>
